src/assets/appland-logo.svg

<svg fill="none" viewBox="0 0 286 35" xmlns="http://www.w3.org/2000/svg" xmlns:xlink="http://www.w3.org/1999/xlink"><clipPath id="a"><path d="m0 0h286v35h-286z"/></clipPath><g clip-path="url(#a)" clip-rule="evenodd" fill="#ff07aa" fill-rule="evenodd"><path d="m48.4379-.00002836h9.7858c1.616-.01770194 3.2275.17345936 4.7946.56875036 1.3332.329296 2.5887.917698 3.6952 1.731768 1.0186.76212 1.8338 1.76388 2.3737 2.91667.5802 1.2966.8638 2.70664.83 4.12708.0372 1.42926-.2556 2.84786-.8555 4.14536-.5553 1.1493-1.3766 2.1492-2.3955 2.9166-1.1175.8163-2.3803 1.4115-3.7207 1.7537-1.5719.4121-3.1917.6119-4.8164.5942h-6.1672v16.2459h-3.524zm3.4257 15.87032836h5.9706c2.7692 0 4.8735-.5445 6.3127-1.6334 1.4393-1.0888 2.1565-2.6687 2.1516-4.73953 0-2.17292-.7427-3.7625-2.228-4.76875-1.4854-1.00625-3.5642-1.51181-6.2363-1.51667h-5.9706z"/><path d="m85.488-.00002836h9.7859c1.616-.01770194 3.2275.17345936 4.7951.56875036 1.329.330948 2.582.917908 3.687 1.728128 1.017.76374 1.832 1.76508 2.374 2.91666.58 1.29802.863 2.70916.83 4.13073.04 1.42876-.251 2.84726-.848 4.14536-.555 1.1493-1.377 2.1492-2.396 2.9166-1.117.8163-2.38 1.4115-3.7203 1.7537-1.5719.4121-3.1917.6119-4.8165.5942h-6.1671v16.2459h-3.5241zm3.4258 15.87032836h5.9705c2.7717 0 4.876-.5445 6.3127-1.6334 1.437-1.0888 2.154-2.6687 2.152-4.73953 0-2.17292-.743-3.7625-2.228-4.76875-1.4857-1.00625-3.5645-1.51181-6.2367-1.51667h-5.9705z"/><path d="m126.572 31.8354h17.613l-1.529 3.1646h-19.605v-35h3.521z"/><path d="m233.718 29.8083h.098v-29.8083h3.55v35h-4.438l-20.311-30.10729h-.098v30.10729h-3.55v-35h4.438z"/><path d="m256.511 0h11.435c2.191.0104783 4.365.379945 6.437 1.09375 2.133.71226 4.11 1.82598 5.825 3.28125 1.77 1.51401 3.202 3.38334 4.205 5.48698 1.112 2.39542 1.66 5.01492 1.602 7.65622 0 2.9337-.534 5.4858-1.602 7.6563-1.007 2.0957-2.439 3.9582-4.205 5.4687-1.715 1.4553-3.692 2.569-5.825 3.2813-2.073.7076-4.247 1.0709-6.437 1.0755h-11.435zm3.401 31.8865h6.942c2.32.0511 4.626-.3693 6.779-1.236 1.8-.7382 3.428-1.8403 4.784-3.2375 1.251-1.3138 2.219-2.8712 2.843-4.5755 1.261-3.4111 1.261-7.1618 0-10.5729-.625-1.7038-1.593-3.2611-2.843-4.57554-1.356-1.39717-2.984-2.49931-4.784-3.2375-2.153-.86791-4.459-1.2896-6.779-1.23958h-6.942z"/><path d="m29.0008 24.8792-10.2882-21.40472-1.7839-3.47448-1.6965 3.47448-15.2322 31.52552h3.9391l1.89674-4.1526 1.92587-4.1234 5.05679-11.2875 4.1102-8.4365 9.0541 19.724.9465 2.0088 2.9635 6.2672h3.9646z"/><path d="m188.094 24.8792-10.292-21.40472-1.78-3.47448-1.697 3.47448-15.232 31.52552h3.939l1.897-4.1526 1.926-4.1234 5.057-11.2875 4.11-8.4365 9.054 19.724.946 2.0088 2.964 6.2672h3.965z"/></g></svg>

<svg viewBox="0 0 286 35" fill="none" xmlns="http://www.w3.org/2000/svg">
<g clip-path="url(#clip0)">
<path fill-rule="evenodd" clip-rule="evenodd" d="M48.4379 -2.83573e-05H58.2237C59.8397 -0.0177303 61.4512 0.173431 63.0183 0.568722C64.3515 0.898018 65.607 1.48642 66.7135 2.30049C67.7321 3.06261 68.5473 4.06437 69.0872 5.21716C69.6674 6.51376 69.951 7.9238 69.9172 9.34424C69.9544 10.7735 69.6616 12.1921 69.0617 13.4896C68.5064 14.6389 67.6851 15.6388 66.6662 16.4062C65.5487 17.2225 64.2859 17.8177 62.9455 18.1599C61.3736 18.572 59.7538 18.7718 58.1291 18.7541H51.9619V35H48.4379V-2.83573e-05ZM51.8636 15.8703H57.8342C60.6034 15.8703 62.7077 15.3258 64.1469 14.2369C65.5862 13.1481 66.3034 11.5682 66.2985 9.49737C66.2985 7.32445 65.5558 5.73487 64.0705 4.72862C62.5851 3.72237 60.5063 3.21681 57.8342 3.21195H51.8636V15.8703Z" fill="#FF07AA"/>
<path fill-rule="evenodd" clip-rule="evenodd" d="M85.488 -2.83573e-05H95.2739C96.8899 -0.0177303 98.5014 0.173431 100.069 0.568722C101.398 0.89967 102.651 1.48663 103.756 2.29685C104.773 3.06059 105.588 4.06193 106.13 5.21351C106.71 6.51153 106.993 7.92267 106.96 9.34424C107 10.773 106.709 12.1915 106.112 13.4896C105.557 14.6389 104.735 15.6388 103.716 16.4062C102.599 17.2225 101.336 17.8177 99.9957 18.1599C98.4238 18.572 96.804 18.7718 95.1792 18.7541H89.0121V35H85.488V-2.83573e-05ZM88.9138 15.8703H94.8843C97.656 15.8703 99.7603 15.3258 101.197 14.2369C102.634 13.1481 103.351 11.5682 103.349 9.49737C103.349 7.32445 102.606 5.73487 101.121 4.72862C99.6353 3.72237 97.5565 3.21681 94.8843 3.21195H88.9138V15.8703Z" fill="#FF07AA"/>
<path fill-rule="evenodd" clip-rule="evenodd" d="M126.572 31.8354H144.185L142.656 35H123.051V0H126.572V31.8354Z" fill="#FF07AA"/>
<path fill-rule="evenodd" clip-rule="evenodd" d="M233.718 29.8083H233.816V0H237.366V35H232.928L212.617 4.89271H212.519V35H208.969V0H213.407L233.718 29.8083Z" fill="#FF07AA"/>
<path fill-rule="evenodd" clip-rule="evenodd" d="M256.511 0H267.946C270.137 0.0104783 272.311 0.379945 274.383 1.09375C276.516 1.80601 278.493 2.91973 280.208 4.375C281.978 5.88901 283.41 7.75834 284.413 9.86198C285.525 12.2574 286.073 14.8769 286.015 17.5182C286.015 20.4519 285.481 23.004 284.413 25.1745C283.406 27.2702 281.974 29.1327 280.208 30.6432C278.493 32.0985 276.516 33.2122 274.383 33.9245C272.31 34.6321 270.136 34.9954 267.946 35H256.511V0ZM259.912 31.8865H266.854C269.174 31.9376 271.48 31.5172 273.633 30.6505C275.433 29.9123 277.061 28.8102 278.417 27.413C279.668 26.0992 280.636 24.5418 281.26 22.8375C282.521 19.4264 282.521 15.6757 281.26 12.2646C280.635 10.5608 279.667 9.0035 278.417 7.68906C277.061 6.29189 275.433 5.18975 273.633 4.45156C271.48 3.58365 269.174 3.16196 266.854 3.21198H259.912V31.8865Z" fill="#FF07AA"/>
<path fill-rule="evenodd" clip-rule="evenodd" d="M29.0008 24.8792L18.7126 3.47448L16.9287 0L15.2322 3.47448L0 35H3.9391L5.83584 30.8474L7.76171 26.724L12.8185 15.4365L16.9287 7L25.9828 26.724L26.9293 28.7328L29.8928 35H33.8574L29.0008 24.8792Z" fill="#FF07AA"/>
<path fill-rule="evenodd" clip-rule="evenodd" d="M188.094 24.8792L177.802 3.47448L176.022 0L174.325 3.47448L159.093 35H163.032L164.929 30.8474L166.855 26.724L171.912 15.4365L176.022 7L185.076 26.724L186.022 28.7328L188.986 35H192.951L188.094 24.8792Z" fill="#FF07AA"/>
</g>
<defs>
<clipPath id="clip0">
<rect width="286" height="35" fill="white"/>
</clipPath>
</defs>
</svg>
